X:1
T:Garrett Barry's
R: jig
M:6/8
L:1/8
K:Dmix
|: "D5" DEF     ~G3 |     AGA c2A    | "C"  dcA     d2e |      fed cAG  |
   "D5" ~F3     GFG |     AGA cde    | "Am" dcA "C" GEA | "D5" DED D2A :|
|: "D5" dcA     d2e | "C" fed (3efge | "D5" dcA     c2d | "C"  efe ecA  |
   "D5" dcA "C" d2e |"Am" fed (3efge |      dcA "C" GEA | "D5" DED D2A :|
